X:1
T:Mrs. C. H. Morris
T:C. H. M.
T:Just Such a Friend is Jesus
%%score { ( 1 2 ) | ( 3 4 ) }
L:1/8
M:6/4
K:Ab
V:1 treble 
V:2 treble 
V:3 bass 
V:4 bass 
V:1
{/x} E2 | E3 =D E2 F3 E E2 | E4 =D2 _D4 D2 | G3 F E2 D4 F2 | E6- E4 E2 | E3 E E2 F3 F G2 | %6
w: Oh,|who has not felt that the|cares of earth Were|more than man's strength could|bear, * And|longed for a friend who could|
w: Oh,|who has not felt the dark|stain of sin Like|crim\- son up\- on his|soul, * And|sought for a friend who had|
w: When|those that we love have been|snatched a\- way, And|walk no more by our|side, * Oh,|where is the One who will|
w: Thou|Friend of the friend\- less, so|kind and true, Thou|Sav\- ior of vsin\- ners|lost, * Pro\-|tect us and guide us life's|
 A4 G2 F4 F2 | F3 G A2 (c2 B2) A2 | B6- B4 z2 |"^Chorus"[Q:1/4=120]"^Allegretto" c3 B A2 E4 A2 | %10
w: un\- der\- stand, And|all of life's * bur\- dens|share? *|Just such a Friend is|
w: pow'r to free From|pass\- ions which held * con\-|trol? *||
w: dear\- er be Than|all of earth's friends * be\-|side? *||
w: jour\- ney thro' Till|safe\- ly death's stream * we've|crossed. *||
 A6 G6 | E3 E G2 B4 d2 | d6 c4 A2 | A3 G A2 B2 A2 F2 | E2 A2 d2 c6 | B3 F A2 (A2 E2) c2 | B6 A4 |] %17
w: Je\- sus,|Just such a Friend is|Je\- sus: His|grace doth for\- ev\- er to|sinn\- ers a\- bound;|Just such a Friend * is|Je\- sus.|
w: |||||||
w: |||||||
w: |||||||
V:2
 C2 | C3 =B, C2 _D3 C C2 | C4 =B,2 _B,4 B,2 | D3 D D2 B,4 D2 | C6- C4 C2 | C3 C C2 C3 C =E2 | %6
 F4 =E2 C4 B,2 | =D3 D D2 D4 D2 | D6- D4 z2 | E3 D C2 C4 C2 | D6 D6 | D3 D D2 G4 G2 | A6 A4 _G2 | %13
 F3 =E F2 F2 F2 D2 | C2 E2 A2 A6 | F3 F F2 E4 E2 | (=D4 _D2) C4 |] %17
V:3
 A,2 | A,3 A, A,2 A,3 A, A,2 | A,4 A,2 G,4 G,2 | D3 A, G,2 G,4 G,2 | A,6- A,4 _A,2 | %5
 B,3 B, B,2 A,3 A, B,2 | C4 B,2 A,4 A,2 | A,3 G, F,2 A,4 F,2 | G,6- G,4 z2 | A,3 A, A,2 A,4 A,2 | %10
 B,6 B,6 | G,3 A, B,2 D4 F2 | F6 E4 C2 | D3 D D2 D2 D2 A,2 | A,2 C2 F2 E6 | =D3 D D2 C4 =A,2 | %16
 (A,4 G,2) A,4 |] %17
V:4
 A,,2 | A,,3 A,, A,,2 A,,3 A,, A,,2 | E,4 E,2 E,4 E,2 | E,3 E, E,2 E,4 E,2 | A,6- A,4 A,2 | %5
 G,3 G, G,2 F,3 F, F,2 | C,4 C,2 F,4 F,2 | B,,3 B,, B,,2 B,,4 B,,2 | E,6- E,4 z2 | %9
 A,,3 A,, A,,2 A,,4 A,,2 | E,6 E,6 | E,3 E, E,2 E,4 E,2 | A,6 A,4 A,2 | D,3 D, D,2 D,2 D,2 D,2 | %14
 A,2 A,2 A,2 A,6 | B,3 B, B,2 E,4 F,2 | (B,,4 E,2) A,,4 |] %17

